build/img/icon-q_detective.svg

<svg width="40" height="30" viewBox="0 0 40 30" fill="none" xmlns="http://www.w3.org/2000/svg">
<path d="M39.0228 9.74601L38.3731 8.34006H36.7972H26.2387H24.7957L24.0993 9.57759C23.9157 9.90378 23.4611 10.9026 23.1674 13.1618C22.8618 12.7642 22.5463 12.3414 22.2233 11.9082C20.3037 9.33514 18.128 6.41889 15.1252 4.64186C13.5587 3.71467 11.5106 2.92847 9.50636 2.48481C8.50711 2.26357 6.93846 2 5.13979 2H3.74784C1.68131 2 0 3.64635 0 5.66991C0 7.69348 1.68131 9.33983 3.74784 9.33983H5.23845C7.44583 9.33983 8.8243 9.92346 10.5059 11.5701C11.9021 12.9372 13.049 14.797 14.2632 16.766C16.283 20.0411 18.5722 23.7533 22.66 26.0883C24.8808 27.3568 27.1702 28 29.4642 28C31.0702 28 32.6687 27.6826 34.2154 27.0566C36.1485 26.2742 37.704 24.8937 38.7137 23.0643C39.5552 21.5398 40 19.7467 40 17.8787C40.0001 12.2948 39.2521 10.2421 39.0228 9.74601ZM12.9138 10.5942C12.6938 10.3473 12.4675 10.1081 12.2331 9.87856C10.0718 7.76223 8.06855 6.94774 5.23836 6.94774H3.74784C3.02715 6.94774 2.44288 6.37562 2.44288 5.66991C2.44288 4.96421 3.02715 4.39209 3.74784 4.39209H5.13979C6.82832 4.39209 8.28178 4.66623 8.96767 4.81803C10.9046 5.24678 12.6878 5.9944 13.8617 6.68919C14.4735 7.05133 15.0541 7.48093 15.6077 7.95637L12.9138 10.5942ZM33.2822 24.8459C32.0634 25.3392 30.786 25.6079 29.4642 25.6079C27.6755 25.6079 25.8056 25.1157 23.8908 24.022C19.181 21.3317 17.1423 16.4093 14.4118 12.5103L17.3297 9.65307C20.5986 13.2716 22.8952 17.9318 25.343 17.9318C25.343 12.3237 26.2387 10.7321 26.2387 10.7321H36.7972C36.7972 10.7321 37.5572 12.377 37.5572 17.8786C37.5572 20.62 36.3358 23.61 33.2822 24.8459Z" fill="white"/>
</svg>

<svg width="40" height="30" fill="none" xmlns="http://www.w3.org/2000/svg"><path d="M39.023 9.746l-.65-1.406H24.796l-.697 1.238c-.183.326-.638 1.325-.932 3.584-.305-.398-.62-.82-.944-1.254-1.92-2.573-4.095-5.49-7.098-7.266-1.566-.927-3.614-1.714-5.619-2.157A20.593 20.593 0 005.14 2H3.748C1.68 2 0 3.646 0 5.67c0 2.023 1.681 3.67 3.748 3.67h1.49c2.208 0 3.586.583 5.268 2.23 1.396 1.367 2.543 3.227 3.757 5.196 2.02 3.275 4.31 6.987 8.397 9.322C24.88 27.357 27.17 28 29.464 28c1.606 0 3.205-.317 4.751-.943a8.899 8.899 0 004.499-3.993C39.555 21.54 40 19.747 40 17.88c0-5.584-.748-7.637-.977-8.133zm-26.11.848c-.22-.247-.446-.486-.68-.715-2.161-2.117-4.164-2.931-6.995-2.931h-1.49c-.72 0-1.305-.572-1.305-1.278 0-.706.584-1.278 1.305-1.278H5.14c1.688 0 3.142.274 3.828.426 1.937.429 3.72 1.176 4.894 1.871a12.44 12.44 0 011.746 1.267l-2.694 2.638zm20.37 14.252a10.121 10.121 0 01-3.819.762c-1.788 0-3.658-.492-5.573-1.586-4.71-2.69-6.749-7.613-9.48-11.512l2.919-2.857c3.269 3.619 5.565 8.279 8.013 8.279 0-5.608.896-7.2.896-7.2h10.558s.76 1.645.76 7.147c0 2.741-1.221 5.731-4.275 6.967z" fill="#fff"/></svg>
